X: 137014
T: The WIDOW MAGEE
Q: "Irish Jig."
R: Jig.
%R: jig
N: This is version 2, for ABC software that understands voice overlays.
B: James Kerr "Merry Melodies" v.1 p.37 s.0 #14
Z: 2016 John Chambers <jc:trillian.mit.edu>
M: 6/8
L: 1/8
K: A
uE |\
ABA ua2uf | ecA uB2uA | FBB Bcd | cBA uF2uE |\
ABA a2f | ecA cde | fga ece | dcB A2 H:|
ue |:\
vf2vf ue2uc | a2a g2e | aba g2e | f3 e2e |\
f2f e2c | a2a g2e | a2a g2f | x3 "^1st"cde & efc "_2nd"cdB |]

%%sep 1 1 500
%%sep 1 1 500

